!!!!SEGMENT: pl-kozmzk--mzk-m-346--001-022_walczynski-franciszek--cantantibus-organis-op-10-22-andantino.krn
!!!cenid: 18xx:2817
!!!COM: Walczyński, Franciszek
!!!COM-rismID: pe30021989
!!!CDT: ~1852-1937
!!!CNT: Polish
!!!GTL: Cantantibus organis op. 10
!!!OTL: 22. Andantino
!!!OMV: 022
!!!PDT: 1898
!!!AGN: Secular
!!!SMS-siglum: PL-KOZmzk
!!!SMS-shelfmark: mzk/m/346
!!!SMS-shelfwork: 001-022 G
!!!SMS-variant:
!!!SMS-altvar:
!!!NIFC-rismSourceID: 1001099615
!!!NIFC-rismChildID: 1001109271
!!!NIFC-islandoraID: pl-kozmzk:7453
!!!URL-pdf-islandora: https://repozytorium.nifc.pl/islandora/object/pl-kozmzk%3A7453/datastream/PDF/view
!!!URL-scan: https://polish.musicsources.pl/pl/lokalizacje/galeria/druki-muzyczne/7581 @EN{Scan on Polish Music Sources Website} @PL{Skany w portalu Dziedzictwo Muzyki Polskiej w otwartym dostępie}
!!!IIIF:
!!!ONB-nifc:
!!!AIN: 1 organ
!!!key:
**kern	**kern	**dynam
*part1	*part1	*part1
*staff2	*staff1	*
*Iorgan	*Iorgan	*
*I"Organo	*I"Organo	*
*clefF4	*clefG2	*
*k[f#c#g#]	*k[f#c#g#]	*
*A:	*A:	*
*M6/8	*M6/8	*
=1	=1	=1
*^	*^	*
!	!	!LO:TX:a:B:t=Andantino.	!	!
2.r	2.r	(8cc#/L	2.r	p
.	.	8dd/	.	.
.	.	8g#/J	.	.
.	.	8b/L	.	.
.	.	8a/	.	.
.	.	8f#/J	.	.
*	*	*v	*v	*
=2	=2	=2	=2
8r	2.r	2.e/)	.
(8B/L 8d	.	.	.
8A/J 8c#	.	.	.
8G#/L 8B	.	.	.
8A/ 8c#	.	.	.
8B/J) 8d	.	.	.
=3	=3	=3	=3
*	*	*^	*
([4.c#/	(4.A\	[4.a/	(4.e\	f
4c#/]	4F#\	4a/]	4f#\	.
8f#/	8D\	8b/	8a\	.
=4	=4	=4	=4	=4
2.e#X/)	2.C#\)	2.cc#/	2.g#\)	.
=5	=5	=5	=5	=5
!	!	!	!	!LO:DY:b=2
2.r	(8c#\L	2.rdd	2.rg	p
.	8d\	.	.	.
.	8G#\J	.	.	.
.	8B\L	.	.	.
.	8A\	.	.	.
.	8F#\J)	.	.	.
=6	=6	=6	=6	=6
8r	(2.E\	8rdd	8rd	.
!	!	!	!	!LO:DY:t=pf
(8G#/L	.	(8e/L	[4d\	fp
8A/J	.	8f#/J	.	.
8B/L	.	8g#/L	4.d\_	.
8A/	.	8a/	.	.
8G#/J	.	8b/J	.	.
=7	=7	=7	=7	=7
4.G#/	4.E#X\	4.b/	4.d\]	.
4.A/)	4.F#\)	4.a/)	4.c#\	.
=8	=8	=8	=8	=8
!	!	!	!	!LO:DY:a
(4B/	4.BB\	(4g#/	4.d#X\	f
8A/	.	8f#/	.	.
8G#/L	[4.E\	8e/L	[4.e\	.
8d/	.	8b/	.	.
8c#/J	.	8a/J	.	.
=9	=9	=9	=9	=9
!!LO:PB:g=original
!	!	!	!	!LO:HP:b=2
8B/L	2.E\]	8g#/L	2.e\]	>
8f#/	.	8dd/	.	.
8e/J	.	8cc#/J	.	]
8d/L	.	8b/L	.	.
8c#/	.	8a/	.	.
8B/J)	.	8g#/J	.	.
=10	=10	=10	=10	=10
!LO:TX:b:i:t=Ped.	!	!	!	!
(4.A/	[2.AA\	[4.a/	[4.c#\	p
4.Gn/	.	4.a/_)	8c#\L]	.
.	.	.	8d\	.
.	.	.	[8e\J	.
=11	=11	=11	=11	=11
4.F#/	2.AA\_	2.a/_	(4e\]	.
.	.	.	[8d\	.
4.Fn/	.	.	8d\L]	.
.	.	.	8A\	.
.	.	.	8B\J	.
=12	=12	=12	=12	=12
2.E/)	2.AA\]	2.a/]	2.c#\)	.
=13	=13	=13	=13	=13
!	!	!	!	!LO:DY:b=2
2.r	(8C#\L	2.rg	2.rdd	pp
.	8D\	.	.	.
.	8GG#\J	.	.	.
.	8BB\L	.	.	.
.	8AA\	.	.	.
.	8FF#\J)	.	.	.
*	*	*v	*v	*
=14	=14	=14	=14
2.ryy	([4.EE\	(((2.d/ 2.g# 2.b	pp >
.	8EE\L]	.	.
.	8FFn\	.	.
.	8EE\J)	.	.
=15	=15	=15	=15
4ryy	4AA\	4c#/))) 4e 4a	.
8ryy	8r	8r	]
[4.A/	(4DD\	4.d/ 4.fn 4.a	sf > ]]
.	8FFn\	.	.
=16	=16	=16	=16
2.E/ 2.A]	2.AA;\)	2.c#;/ 2.e 2.a	pp
*v	*v	*	*
==	==	==
*-	*-	*-
!!!system-decoration: {(s1,s2)}
!!!ENC: Kamil Watkowski
!!!END: 2021-08-09
!!!YEC: Copyright 2022 Narodowy Instytut Fryderyka Chopina (https://polishscores.org)
!!!YEM: License CC-BY-4.0 (https://creativecommons.org/licenses/by/4.0)
